Papirus/48x48/apps/google-chrome-unstable.svg

<svg xmlns="http://www.w3.org/2000/svg" width="48" height="48" version="1">
 <circle style="opacity:0.2" cx="24" cy="25" r="20"/>
 <path d="m 23.968988,4.0002 c -7.005883,0 -13.131287,3.5921141 -16.6939389,9.026461 -0.125881,8.142625 5.0483219,10.980235 8.7992899,15.241998 -0.689964,-1.274331 -1.09236,-2.721571 -1.09236,-4.278754 0,-4.983383 4.038837,-6.442217 8.986509,-6.996327 l 17.848206,-1.99895 C 38.540612,8.4586593 31.798733,4.0003999 23.968488,4.0003999 Z" style="fill:#e64646"/>
 <path d="m 6.6946205,34.042228 c 3.5029415,6.073211 9.6735775,9.587367 16.1567445,9.957972 6.912823,-3.814198 10.577122,-8.663052 8.787408,-15.248994 -0.757862,1.235651 -1.808684,2.307588 -3.156062,3.086179 -2.140985,1.237351 -4.12331,-0.06317 -6.329997,-0.642692 -2.237141,-0.587462 -4.692655,-0.47717 -5.945774,-2.649809 L 7.2818389,13.072007 C 3.2653687,19.1808 2.7789988,27.253562 6.6939216,34.041998 Z" style="fill:#f66f6f"/>
 <path d="m 41.318941,33.987257 c 3.502941,-6.073212 3.458009,-13.179081 0.537283,-18.984034 l -17.586598,0.007 c 1.448026,0.03918 2.900845,0.414132 4.248223,1.192774 2.304141,1.3316 2.087566,3.962819 2.597201,6.367657 0.444023,2.0951 1.851021,3.910746 0.692061,5.920091 L 22.883008,43.96262 c 7.293051,0.427775 14.5212,-3.187327 18.436322,-9.975763 z" style="fill:#e58989"/>
 <rect opacity=".2" width="18" height="18" x="-33.98" y="-33" rx="9" ry="9" transform="matrix(0,-1,-1,0,0,0)"/>
 <rect style="fill:#ffffff" width="18" height="18" x="-33" y="-33" rx="9" ry="9" transform="matrix(0,-1,-1,0,0,0)"/>
 <rect style="fill:#e64646" width="14" height="14" x="-31" y="-31" rx="7" ry="7" transform="matrix(0,-1,-1,0,0,0)"/>
 <path style="opacity:0.2;fill:#ffffff" d="M 24 4 A 20 20 0 0 0 4 24 A 20 20 0 0 0 4.0214844 24.582031 A 20 20 0 0 1 24 5 A 20 20 0 0 1 43.978516 24.417969 A 20 20 0 0 0 44 24 A 20 20 0 0 0 24 4 z"/>
</svg>

<svg xmlns="http://www.w3.org/2000/svg" width="48" height="48" version="1">
 <path fill="#e64646" d="m24 3.9792c-7.0164 0-13.151 3.594-16.719 9.0312-0.12607 8.1469 5.0559 10.986 8.8125 15.25-0.691-1.275-1.094-2.723-1.094-4.281 0-4.986 4.0449-6.4456 9-7l17.875-2c-3.281-6.5394-10.033-11-17.875-11z"/>
 <path fill="#f66f6f" d="m6.6997 34.037c3.5082 6.0764 9.6881 9.5924 16.181 9.9632 6.9232-3.8162 10.593-8.6676 8.8006-15.257-0.759 1.2363-1.8114 2.3088-3.1608 3.0878-2.1442 1.238-4.1295-0.0632-6.3395-0.64303-2.2405-0.58777-4.6997-0.47742-5.9547-2.6512l-8.9385-15.481c-4.0225 6.112-4.5096 14.189-0.5888 20.981z"/>
 <path fill="#e58989" d="m41.376 33.982c3.5082-6.0764 3.4632-13.186 0.53809-18.994l-17.613 0.007c1.4502 0.0392 2.9052 0.41435 4.2546 1.1934 2.3076 1.3323 2.0907 3.9649 2.6011 6.371 0.44469 2.0962 1.8538 3.9128 0.6931 5.9232l-8.9375 15.48c7.304 0.428 14.543-3.189 18.464-9.981z"/>
 <rect opacity=".2" width="18" height="18" x="-33.98" y="-33" rx="9" ry="9" transform="matrix(0,-1,-1,0,0,0)"/>
 <rect style="fill:#ffffff" width="18" height="18" x="-33" y="-33" rx="9" ry="9" transform="matrix(0,-1,-1,0,0,0)"/>
 <rect style="fill:#e64646" width="14" height="14" x="-31" y="-31" rx="7" ry="7" transform="matrix(0,-1,-1,0,0,0)"/>
 <path fill="#fff" opacity=".2" d="m24 3.9792c-11.08 0-20 8.92-20 20 0 0.168 0.0076 0.333 0.0117 0.5 0.2642-10.847 9.0763-19.5 19.988-19.5s19.724 8.653 19.988 19.5c0.0041-0.16686 0.01172-0.33213 0.01172-0.5 0-11.08-8.92-20-20-20z"/>
 <path opacity=".2" d="m4.0117 24.5c-0.0041 0.167-0.0117 0.332-0.0117 0.5 0 11.08 8.92 20 20 20s20-8.92 20-20c0-0.168-0.008-0.333-0.012-0.5-0.264 10.846-9.076 19.5-19.988 19.5s-19.724-8.654-19.988-19.5z"/>
</svg>
